X:035
T: Hen's Concert (The)
N: O'Farrell's Pocket Companion v.1 (Sky ed. p.32)
M: C
L: 1/8
Q: 270
R: march
K: D
A|d4 A3G|FEFG A3d|BdBd g2 f2|edef e2A2|
d4 A3G|FEFG A3d|Bcde fgab|f2 e2 d3 :|
z|A2 AA A2 A2|A2 Af e2 f2|A2 AA A2 A2|A2 Af e2 f2|
d2 dd d2 d2|d2 dg f2 a2|d2 dd d2 d2|d2 dg f2 a2|
agfa gfeg|f2 ge dcBA|defg a2 ba/g/|f2 e2 d3 :|
